icons/Color/24/gimp-tool-flip.svg

<svg height="24" viewBox="0 0 24 24" width="24" xmlns="http://www.w3.org/2000/svg"><g fill="#729fcf" transform="matrix(-1.5000103 0 0 1.5048435 24.000041 -.0386)"><path d="m.47415668.50000006 7.09276472 1.37179184-.041078 12.3178351-7.05168672 1.310373z" style="fill:#729fcf;stroke:#204a87;stroke-width:.948313;stroke-linecap:square;stroke-linejoin:round;stroke-miterlimit:0"/><path d="m.93840343 1.0885428 6.14480767 1.246618-.020539 11.3910972-6.10390612 1.096006z" style="opacity:.5;fill:#729fcf;stroke:#fff;stroke-width:.499218;stroke-linecap:square;stroke-linejoin:round;stroke-miterlimit:0"/><path d="m4.2144358 7.4761665h2.2052365v1.7119918h-2.2052365v1.2228507h-.7350783l-2.1309925-2.2011317 2.1309925-1.956562h.7350783z" fill="#fff" fill-rule="evenodd" stroke="#3465a4" stroke-width=".493952"/></g><g transform="matrix(1.5001581 0 0 1.499827 0 .2525)"><path d="m.480041 1.64517h7.039075v12.374789h-7.039075z" style="fill:#3465a4;stroke:#204a87;stroke-width:.960082;stroke-linecap:square;stroke-linejoin:round;stroke-miterlimit:0"/><path d="m4.2188099 7.3068586h2.2046966v1.718166h-2.2046966v1.2272614h-.7348984l-2.1304709-2.2090706 2.1304709-1.9636184h.7348984z" fill="#fff" fill-rule="evenodd" stroke="#3465a4" stroke-width=".494516"/><path d="m.998945 2.498945h6.00211v11.00211h-6.00211z" style="opacity:.5;fill:none;stroke:#fff;stroke-width:.49789;stroke-linecap:square;stroke-linejoin:round;stroke-miterlimit:0"/></g></svg>

<?xml version="1.0" encoding="UTF-8" standalone="no"?>
<!-- Created with Inkscape (http://www.inkscape.org/) -->

<svg
   xmlns:dc="http://purl.org/dc/elements/1.1/"
   xmlns:cc="http://creativecommons.org/ns#"
   xmlns:rdf="http://www.w3.org/1999/02/22-rdf-syntax-ns#"
   xmlns:svg="http://www.w3.org/2000/svg"
   xmlns="http://www.w3.org/2000/svg"
   xmlns:sodipodi="http://sodipodi.sourceforge.net/DTD/sodipodi-0.dtd"
   xmlns:inkscape="http://www.inkscape.org/namespaces/inkscape"
   width="24"
   height="24"
   viewBox="0 0 24 24"
   id="svg30571"
   version="1.1"
   inkscape:version="0.91+devel r"
   sodipodi:docname="gimp-tool-flip-24.svg">
  <defs
     id="defs30573" />
  <sodipodi:namedview
     id="base"
     pagecolor="#ffffff"
     bordercolor="#666666"
     borderopacity="1.0"
     inkscape:pageopacity="0.0"
     inkscape:pageshadow="2"
     inkscape:zoom="32.458333"
     inkscape:cx="3.1116816"
     inkscape:cy="11.676508"
     inkscape:document-units="px"
     inkscape:current-layer="layer1"
     showgrid="true"
     units="px"
     inkscape:snap-page="true"
     inkscape:snap-bbox="true"
     inkscape:bbox-paths="true"
     inkscape:bbox-nodes="true"
     inkscape:snap-bbox-edge-midpoints="true"
     inkscape:snap-bbox-midpoints="true"
     inkscape:object-paths="true"
     inkscape:snap-intersection-paths="true"
     inkscape:object-nodes="true"
     inkscape:snap-smooth-nodes="true"
     inkscape:snap-midpoints="true"
     inkscape:snap-object-midpoints="true"
     inkscape:snap-center="true"
     inkscape:snap-text-baseline="true"
     showborder="false"
     inkscape:window-width="1920"
     inkscape:window-height="1016"
     inkscape:window-x="0"
     inkscape:window-y="27"
     inkscape:window-maximized="1"
     inkscape:snap-global="false"
     showguides="false">
    <inkscape:grid
       type="xygrid"
       id="grid4369" />
  </sodipodi:namedview>
  <metadata
     id="metadata30576">
    <rdf:RDF>
      <cc:Work
         rdf:about="">
        <dc:format>image/svg+xml</dc:format>
        <dc:type
           rdf:resource="http://purl.org/dc/dcmitype/StillImage" />
        <dc:title />
        <dc:creator>
          <cc:Agent>
            <dc:title>Klaus Staedtler</dc:title>
          </cc:Agent>
        </dc:creator>
      </cc:Work>
    </rdf:RDF>
  </metadata>
  <g
     inkscape:label="Layer 1"
     inkscape:groupmode="layer"
     id="layer1"
     transform="translate(0,-1028.3622)">
    <g
       id="g4245">
      <g
         style="fill:#729fcf"
         transform="matrix(-1.5000103,0,0,1.5048435,24.000041,1028.3236)"
         id="g4265-7">
        <path
           sodipodi:nodetypes="ccccc"
           inkscape:connector-curvature="0"
           id="rect4251-5"
           d="M 0.47415668,0.50000006 7.5669214,1.8717919 7.5258434,14.189627 0.47415668,15.5 Z"
           style="opacity:1;fill:#729fcf;fill-opacity:1;stroke:#204a87;stroke-width:0.94831336;stroke-linecap:square;stroke-linejoin:round;stroke-miterlimit:0;stroke-dasharray:none;stroke-opacity:1;paint-order:stroke fill markers" />
        <path
           sodipodi:nodetypes="ccccc"
           inkscape:connector-curvature="0"
           id="rect4260-6"
           d="M 0.93840343,1.0885428 7.0832111,2.3351608 7.0626721,13.726258 0.95876598,14.822264 Z"
           style="opacity:0.5;fill:#729fcf;fill-opacity:1;stroke:#ffffff;stroke-width:0.49921766;stroke-linecap:square;stroke-linejoin:round;stroke-miterlimit:0;stroke-dasharray:none;stroke-opacity:1;paint-order:stroke fill markers" />
        <path
           inkscape:connector-curvature="0"
           style="fill:#ffffff;fill-opacity:1;fill-rule:evenodd;stroke:#3465a4;stroke-width:0.49395192;stroke-linecap:butt;stroke-linejoin:miter;stroke-miterlimit:4;stroke-dasharray:none;stroke-opacity:1"
           d="M 4.2144358,7.4761665 H 6.4196723 V 9.1881583 H 4.2144358 V 10.411009 H 3.4793575 L 1.348365,8.2098773 3.4793575,6.2533153 h 0.7350783 z"
           id="path8347-1-5"
           sodipodi:nodetypes="cccccccccc" />
      </g>
      <g
         transform="matrix(1.5001581,0,0,1.499827,0,1028.6147)"
         id="g4265">
        <rect
           style="opacity:1;fill:#3465a4;fill-opacity:1;stroke:#204a87;stroke-width:0.96008164;stroke-linecap:square;stroke-linejoin:round;stroke-miterlimit:0;stroke-dasharray:none;stroke-opacity:1;paint-order:stroke fill markers"
           id="rect4251"
           width="7.0390754"
           height="12.374789"
           x="0.48004082"
           y="1.6451699" />
        <path
           inkscape:connector-curvature="0"
           style="fill:#ffffff;fill-opacity:1;fill-rule:evenodd;stroke:#3465a4;stroke-width:0.49451646;stroke-linecap:butt;stroke-linejoin:miter;stroke-miterlimit:4;stroke-dasharray:none;stroke-opacity:1"
           d="m 4.2188099,7.3068586 h 2.2046966 v 1.718166 H 4.2188099 V 10.252286 H 3.4839115 L 1.3534406,8.0432154 3.4839115,6.079597 h 0.7348984 z"
           id="path8347-1-4"
           sodipodi:nodetypes="cccccccccc" />
        <rect
           style="opacity:0.5;fill:none;fill-opacity:1;stroke:#ffffff;stroke-width:0.49789023;stroke-linecap:square;stroke-linejoin:round;stroke-miterlimit:0;stroke-dasharray:none;stroke-opacity:1;paint-order:stroke fill markers"
           id="rect4260"
           width="6.00211"
           height="11.00211"
           x="0.99894512"
           y="2.4989452" />
      </g>
    </g>
  </g>
</svg>
